img/partners/inspired.svg

<svg xmlns="http://www.w3.org/2000/svg" width="224.538" height="60" viewBox="0 0 224.538 60"><g fill="#ED1C24"><path d="M0 47.31v-46h9.793v46h-9.793zM38.412 47.31v-20.138c0-4.621-2.414-6.207-6.138-6.207-3.448 0-6.069 1.931-7.586 3.862v22.483h-8.758v-33.31h8.758v4.276c2.138-2.483 6.276-5.104 11.655-5.104 7.379 0 10.896 4.138 10.896 10.621v23.517h-8.827zM50.203 42.966l3.793-6.345c2.483 2.345 7.379 4.621 11.517 4.621 3.793 0 5.586-1.448 5.586-3.518 0-5.448-19.724-.965-19.724-14.069 0-5.586 4.827-10.483 13.655-10.483 5.586 0 10.069 1.931 13.379 4.552l-3.517 6.207c-2-2.069-5.793-3.862-9.862-3.862-3.172 0-5.241 1.379-5.241 3.241 0 4.897 19.793.759 19.793 14.207 0 6.138-5.241 10.62-14.483 10.62-5.792.001-11.379-1.93-14.896-5.171zM91.994 43.034v16.966h-8.759v-46h8.759v4.207c2.552-3.241 6.207-5.034 10.276-5.034 8.552 0 14.758 6.345 14.758 17.448s-6.207 17.517-14.758 17.517c-3.931 0-7.517-1.655-10.276-5.104zm16-12.413c0-5.724-3.448-9.655-8.483-9.655-2.828 0-6 1.586-7.517 3.793v11.724c1.448 2.138 4.689 3.862 7.517 3.862 5.035 0 8.483-3.931 8.483-9.724zM119.854 5.172c0-2.896 2.345-5.172 5.173-5.172 2.896 0 5.241 2.276 5.241 5.172 0 2.897-2.345 5.241-5.241 5.241-2.828.001-5.173-2.344-5.173-5.241zm.828 42.138v-33.31h8.759v33.31h-8.759zM135.37 47.31v-33.31h8.759v4.483c2.414-2.897 6.482-5.311 10.62-5.311v8.552c-.621-.138-1.379-.207-2.414-.207-2.897 0-6.759 1.655-8.207 3.793v22h-8.758zM155.299 30.621c0-9.655 7.172-17.448 17.241-17.448 10 0 16.689 7.448 16.689 18.276v2.069h-24.758c.621 4.069 3.931 7.448 9.586 7.448 2.827 0 6.69-1.172 8.828-3.241l3.931 5.793c-3.31 3.034-8.551 4.62-13.724 4.62-10.138 0-17.793-6.828-17.793-17.517zm17.241-10.276c-5.448 0-7.793 3.793-8.137 7.103h16.413c-.276-3.172-2.483-7.103-8.276-7.103zM215.71 47.31v-4.276c-2.62 3.31-6.207 5.103-10.275 5.103-8.345 0-14.759-6.345-14.759-17.517 0-10.828 6.276-17.448 14.759-17.448 3.931 0 7.655 1.655 10.275 5.104v-16.966h8.828v46h-8.828zm0-10.758v-11.793c-1.448-2.207-4.62-3.793-7.517-3.793-5.034 0-8.483 3.931-8.483 9.655 0 5.793 3.449 9.724 8.483 9.724 2.897 0 6.069-1.587 7.517-3.793z"/></g></svg>

<?xml version="1.0" encoding="utf-8"?>
<!-- Generator: Adobe Illustrator 17.0.1, SVG Export Plug-In . SVG Version: 6.00 Build 0)  -->
<!DOCTYPE svg PUBLIC "-//W3C//DTD SVG 1.1//EN" "http://www.w3.org/Graphics/SVG/1.1/DTD/svg11.dtd">
<svg version="1.1" id="Layer_1" xmlns="http://www.w3.org/2000/svg" xmlns:xlink="http://www.w3.org/1999/xlink" x="0px" y="0px"
	 width="224.538px" height="60px" viewBox="0 0 224.538 60" enable-background="new 0 0 224.538 60" xml:space="preserve">
<g>
	<path fill="#ED1C24" d="M0,47.31v-46h9.793v46H0z"/>
	<path fill="#ED1C24" d="M38.412,47.31V27.172c0-4.621-2.414-6.207-6.138-6.207c-3.448,0-6.069,1.931-7.586,3.862V47.31h-8.758V14
		h8.758v4.276c2.138-2.483,6.276-5.104,11.655-5.104c7.379,0,10.896,4.138,10.896,10.621V47.31H38.412z"/>
	<path fill="#ED1C24" d="M50.203,42.966l3.793-6.345c2.483,2.345,7.379,4.621,11.517,4.621c3.793,0,5.586-1.448,5.586-3.518
		c0-5.448-19.724-0.965-19.724-14.069c0-5.586,4.827-10.483,13.655-10.483c5.586,0,10.069,1.931,13.379,4.552l-3.517,6.207
		c-2-2.069-5.793-3.862-9.862-3.862c-3.172,0-5.241,1.379-5.241,3.241c0,4.897,19.793,0.759,19.793,14.207
		c0,6.138-5.241,10.62-14.483,10.62C59.307,48.138,53.72,46.207,50.203,42.966z"/>
	<path fill="#ED1C24" d="M91.994,43.034V60h-8.759V14h8.759v4.207c2.552-3.241,6.207-5.034,10.276-5.034
		c8.552,0,14.758,6.345,14.758,17.448s-6.207,17.517-14.758,17.517C98.339,48.138,94.753,46.483,91.994,43.034z M107.994,30.621
		c0-5.724-3.448-9.655-8.483-9.655c-2.828,0-6,1.586-7.517,3.793v11.724c1.448,2.138,4.689,3.862,7.517,3.862
		C104.546,40.345,107.994,36.414,107.994,30.621z"/>
	<path fill="#ED1C24" d="M119.854,5.172c0-2.896,2.345-5.172,5.173-5.172c2.896,0,5.241,2.276,5.241,5.172
		c0,2.897-2.345,5.241-5.241,5.241C122.199,10.414,119.854,8.069,119.854,5.172z M120.682,47.31V14h8.759v33.31H120.682z"/>
	<path fill="#ED1C24" d="M135.37,47.31V14h8.759v4.483c2.414-2.897,6.482-5.311,10.62-5.311v8.552
		c-0.621-0.138-1.379-0.207-2.414-0.207c-2.897,0-6.759,1.655-8.207,3.793v22H135.37z"/>
	<path fill="#ED1C24" d="M155.299,30.621c0-9.655,7.172-17.448,17.241-17.448c10,0,16.689,7.448,16.689,18.276v2.069h-24.758
		c0.621,4.069,3.931,7.448,9.586,7.448c2.827,0,6.69-1.172,8.828-3.241l3.931,5.793c-3.31,3.034-8.551,4.62-13.724,4.62
		C162.954,48.138,155.299,41.31,155.299,30.621z M172.54,20.345c-5.448,0-7.793,3.793-8.137,7.103h16.413
		C180.54,24.276,178.333,20.345,172.54,20.345z"/>
	<path fill="#ED1C24" d="M215.71,47.31v-4.276c-2.62,3.31-6.207,5.103-10.275,5.103c-8.345,0-14.759-6.345-14.759-17.517
		c0-10.828,6.276-17.448,14.759-17.448c3.931,0,7.655,1.655,10.275,5.104V1.31h8.828v46H215.71z M215.71,36.552V24.759
		c-1.448-2.207-4.62-3.793-7.517-3.793c-5.034,0-8.483,3.931-8.483,9.655c0,5.793,3.449,9.724,8.483,9.724
		C211.09,40.345,214.262,38.758,215.71,36.552z"/>
</g>
</svg>
